X:1
T:Oh, Wonderful Love!
T:Albert Simpson Reitz, 1918
T:Oh, Wonderful Love!
T:Public Domain
T:Public Domain
T:Public Domain
C:Albert Simpson Reitz, 1918
Z:Public Domain
%%score 1 ( 2 3 )
L:1/8
M:4/4
K:G
V:1 treble 
V:2 bass 
V:3 bass 
V:1
 [B,D] | [DB]2 [DB][Ec] [DB]2 [CA][DB] | [B,A]2 [B,G][CF] [B,G]3 [B,G] | %3
w: 1.~I|have a Re- deem- er, O|wor- ship His Name, He|
w: 2.~I|have a Re- deem- er who|calls me His own, He|
w: 3.~Yes,|sweet are Thy mer- cies, O|Sav- ior di- vine, In|
 [CG]2 [CF][CE] [CF] [Fc]2 [Ec] | [Ec]2 [DB][^C^A] [DB]3 [B,D] | [B,D]2 [DB][Ec] [DB]2 [=Fd][Fd] | %6
w: bore my trans- gress- ions, my|sin and my shame, And|in His own bo- dy on|
w: bids me come bold- ly be-|fore His great throne; Be-|cause I am par- doned and|
w: ten- der com- pas- sion Thou|mad- est me Thine; With|Thee I will jour- ney till|
 [Ed]2 [Ec][Ec] [CE]3 [CE] | [B,D]2 [B,G][CA] [DB] [Dc]2 [DB] | [^CB]2 [=CA][CD] [B,G]4 || %9
w: Cal- va- ry’s tree, He|took them up- on Him that|I might go free.|
w: cleansed by His blood, And|guilt- less, tho’ liv- ing ’mid|earth’s e- vil flood.|
w: life’s day is done, And|all thro’ the ag- es give|praise to the Son.|
"^Refrain" [DB]2 (3[DB][^C^A][DB] [E^c]2 [DB]2 | [DB]2 [CA]>[B,^G] [CA]4 | %11
w: ||
w: ||
w: ||
 [Fc]2 (3[Fc][FB][Fc] [Gd]2 [Fc]2 | [Ec]2 [DB]>[^C^A] [DB]4 | %13
w: ||
w: ||
w: ||
 [GB]2 (3[GB][Ac][^A^c] [Bd]2 [=FB]>[F=A] | [=FG]2 [FA]>[EB] [Ec]4 | %15
w: ||
w: ||
w: ||
 [Ge]2 (3[Ge][Fd][Ec] [DB] [Gd]2 [GB] | [Gd][GB][Fd][Fd] [Gdg]3 |] %17
w: ||
w: ||
w: ||
V:2
 [G,,G,] | [G,,G,]2 [G,,G,][G,,G,] [G,,G,]2 [D,F,][D,F,] | [D,F,]2 [D,G,][D,A,] [G,,G,]3 [G,,G,] | %3
w: ~|~ ~ ~ ~ ~ ~|~ ~ ~ ~ ~|
 [D,A,]2 [D,A,][D,A,] [D,A,] [D,A,]2 [D,F,] | G,2 G,G, G,3 [G,,G,] | %5
w: ~ ~ ~ ~ ~ ~|~ ~ ~ ~ ~|
 [G,,G,]2 [G,,G,][G,,G,] G,2 [G,B,][G,B,] | [C,C]2 [C,C][C,C] [C,G,]3 [C,G,] | %7
w: ~ ~ ~ ~ ~ ~|~ ~ ~ ~ ~|
 [D,G,]2 [D,G,][D,F,] [D,G,] [D,A,]2 [D,G,] | [A,,G,]2 [D,F,][D,F,] [G,,G,]4 || %9
w: ~ ~ ~ ~ ~ Oh,|won- der- ful love|
 [G,,G,]2 (3[G,,G,][G,,G,][G,,G,] [G,,G,]2 [G,,G,]2 | [D,G,]2 [D,F,]>[D,^E,] [D,F,]4 | %11
w: that saved me from sin! Oh,|won- der- ful love|
 [D,A,]2 (3[D,A,][D,^G,][D,A,] [D,B,]2 [D,A,]2 | G,2 G,>G, G,4 | %13
w: that cleansed me with- in! His|Spir- it bears wit-|
 [G,D]2 (3[A,D][A,E][G,F] [G,D]2 [G,D]>[G,C] | [G,B,]2 [G,C]>[G,D] [C,C]4 | %15
w: am saved; All glo- ry to Je-|sus, I’m saved, I’m|
 [C,C]2 (3[C,C][C,C][C,C] [C,G,] [D,C]2 [D,D] | [D,B,][D,D][D,C][D,C] [G,B,]3 |] %17
w: saved, I’m saved! * * * *||
V:3
 x | x8 | x8 | x8 | G,2 G,G, G,3 x | x4 G,2 x2 | x8 | x8 | x8 || x8 | x8 | x8 | G,2 G,>G, G,4 | %13
w: ||||~ ~ ~ ~|~|||||||ness that now I|
 x8 | x8 | x8 | x7 |] %17
w: ||||

